!!!OTL: Herbstlust.
!!!OTL-incipit:WOHL IST DER HERBST EIN EHRENMANN
!!!COM: J. Fr. Reichardt
!!!ARE: Europa, Mitteleuropa, Deutschland
!!!SCT: F0276
!!!TXL: @@DE
!!!YEM: Copyright 1995, estate of Helmut Schaffrath.
**kern	**text
*ICvox	*
*clefG2	*
*M2/4	*
*k[]	*
*C:	*
!LO:TX:a:t=Froh.	!
!LO:TX:a:t=P:only the highest voice encoded:problem	!
{16cc/	1._Wohl
=1	=1
8.g	iſt
16e	der
8.g	Herbſt
16e	ein
=2	=2
16gqq	.
8f	Eh-
8d	-renmann;
8e	.
16r}	.
{16f#	er
=3	=3
16gL	bringt
16aJ	.
16b/L	uns
16ccJ	.
8dd	Schnabel-
16bL	.
16gJ	.
=4	=4
8.aL	-wei-
16bJ	.
8g	-de!
16r}	.
{16dd	Auch
=5	=5
8.dd	Naſ'
16b	und
8.dd	Au-
16b	-ge
=6	=6
16ddqq	.
8cc	lockt
8a	er
8b/	an,
16r}	.
{16dd	und
=7	=7
8.dd	ü-
16b	-berſpinnt
16dd/L	.
16ggJ	.
16dd/L	Thal
16bJ	.
=8	=8
16ddqq	.
8cc/	ab,
8a	Berg
8b/	an,
16r}	.
{16g	das
=9	=9
16cc/L	Feld
16ddJ	.
16eeL	mit
16ffJ	.
8gg	bun-
16eeL	-ter
16ccJ	.
=10	=10
8.ddL	Sei-
16eeJ	.
8cc/	-de.
16r}	.
==	==
!!!AGN: Jugend - Lied, Jahreszeiten, Herbst
!!!ONB: ESAC (Essen Associative Code) Database: FINK
!!!AMT: simple duple
!!!AIN: vox
!!!EED: Helmut Schaffrath
!!!EEV: 1.0
!!!GTL: Jugendlieder
!!Text: J. H. Voß
!!!source: Musikalischer Hausschatz der Deutschen. Eine Sammlung von über 1000 Liedern und Gesängen mit Singstimmen und Klavierbegleitung. Leipzig, Litterarisches Verlags-Haus.
!!!page: 164
!!!URL-scan: https://www.digitale-sammlungen.de/en/view/bsb11144622?page=162,163
!!!ENC: Anna Maria Matuszewska
!!!EEV: 2024/30/07
*-	*-